assets/img/icons/duotone-icons/Home/Deer.svg

<?xml version="1.0" encoding="UTF-8"?>
<svg width="24px" height="24px" viewBox="0 0 24 24" version="1.1" xmlns="http://www.w3.org/2000/svg" xmlns:xlink="http://www.w3.org/1999/xlink">
    <!-- Generator: Sketch 52.2 (67145) - http://www.bohemiancoding.com/sketch -->
    <title>Stockholm-icons / Home / Deer</title>
    <desc>Created with Sketch.</desc>
    <g id="Stockholm-icons-/-Home-/-Deer" stroke="none" stroke-width="1" fill="none" fill-rule="evenodd">
        <rect id="bound" x="0" y="0" width="24" height="24"></rect>
        <path d="M21.9819854,8.18909235 C21.930842,8.45576237 21.7720053,8.7029872 21.5144958,8.85749293 L16.5144958,11.8574929 C16.3590804,11.9507422 16.1812439,12 16,12 L8,12 C7.81875605,12 7.64091965,11.9507422 7.48550424,11.8574929 L2.48550424,8.85749293 C2.2279947,8.7029872 2.069158,8.45576237 2.01801457,8.18909235 L1.01941932,3.19611614 C0.911107374,2.65455638 1.26232411,2.12773127 1.80388386,2.01941932 C2.34544362,1.91110737 2.87226873,2.26232411 2.98058068,2.80388386 L3.61413433,5.97165211 L6.29289322,3.29289322 C6.68341751,2.90236893 7.31658249,2.90236893 7.70710678,3.29289322 C8.09763107,3.68341751 8.09763107,4.31658249 7.70710678,4.70710678 L4.61275246,7.8014611 L8.27698396,10 L15.723016,10 L19.3872475,7.8014611 L16.2928932,4.70710678 C15.9023689,4.31658249 15.9023689,3.68341751 16.2928932,3.29289322 C16.6834175,2.90236893 17.3165825,2.90236893 17.7071068,3.29289322 L20.3858657,5.97165211 L21.0194193,2.80388386 C21.1277313,2.26232411 21.6545564,1.91110737 22.1961161,2.01941932 C22.7376759,2.12773127 23.0888926,2.65455638 22.9805807,3.19611614 L21.9819854,8.18909235 Z M15.0527864,8.89442719 C14.5588079,8.64743794 14.3585836,8.0467649 14.6055728,7.5527864 C14.8525621,7.05880791 15.4532351,6.85858356 15.9472136,7.10557281 L18.9472136,8.60557281 C19.6529974,8.95846471 19.6911351,9.95150933 19.0144958,10.3574929 L16.5144958,11.8574929 C16.3590804,11.9507422 16.1812439,12 16,12 L8,12 C7.81875605,12 7.64091965,11.9507422 7.48550424,11.8574929 L4.98550424,10.3574929 C4.33816525,9.96908953 4.33816525,9.03091047 4.98550424,8.64250707 L7.48550424,7.14250707 C7.95908451,6.85835891 8.57334477,7.01192398 8.85749293,7.48550424 C9.14164109,7.95908451 8.98807602,8.57334477 8.51449576,8.85749293 L7.44365063,9.5 L8.27698396,10 L15.723016,10 L16.4234324,9.57975019 L15.0527864,8.89442719 Z" id="Combined-Shape" fill="#335EEA" opacity="0.3"></path>
        <path d="M9.85539998,10 L14.1446,10 C15.2491695,10 16.1446,10.8954305 16.1446,12 C16.1446,12.233105 16.1038489,12.4644155 16.0241869,12.6834861 L13.3417431,20.0602066 C13.1365752,20.6244182 12.600357,21 12,21 L12,21 C11.399643,21 10.8634248,20.6244182 10.6582569,20.0602066 L7.97581314,12.6834861 C7.59833417,11.645419 8.13384671,10.4978921 9.17191386,10.1204132 C9.39098444,10.0407511 9.62229495,10 9.85539998,10 Z" id="Rectangle-192" fill="#335EEA"></path>
    </g>
</svg>

<svg width="24" height="24" viewBox="0 0 24 24" xmlns="http://www.w3.org/2000/svg"><g fill="none" fill-rule="evenodd"><path d="M0 0h24v24H0z"/><path d="M21.982 8.19a.993.993 0 01-.468.667l-5 3A1 1 0 0116 12H8a1 1 0 01-.514-.143l-5-3a.993.993 0 01-.468-.668l-.999-4.993a1 1 0 011.962-.392l.633 3.168 2.679-2.68a1 1 0 011.414 1.415L4.613 7.801 8.277 10h7.446l3.664-2.199-3.094-3.094a1 1 0 111.414-1.414l2.679 2.679.633-3.168a1 1 0 011.962.392l-.999 4.993zm-6.93.704a1 1 0 01.895-1.788l3 1.5a1 1 0 01.067 1.751l-2.5 1.5A1 1 0 0116 12H8a1 1 0 01-.514-.143l-2.5-1.5a1 1 0 010-1.714l2.5-1.5a1 1 0 011.028 1.714l-1.07.643.833.5h7.446l.7-.42-1.37-.686z" fill="#335EEA" opacity=".3"/><path d="M9.855 10h4.29a2 2 0 011.88 2.683l-2.683 7.377a1.428 1.428 0 01-2.683 0l-2.683-7.377A2 2 0 019.856 10z" fill="#335EEA"/></g></svg>
